icons/circle/48/greenfoot.svg

<svg viewBox="0 0 48 48" xmlns="http://www.w3.org/2000/svg">
 <defs>
  <linearGradient id="linearGradient3764" x1="1" x2="47" gradientTransform="matrix(0 -1 1 0 -1.5e-6 48)" gradientUnits="userSpaceOnUse">
   <stop style="stop-color:#e4e4e4" offset="0"/>
   <stop style="stop-color:#eee" offset="1"/>
  </linearGradient>
 </defs>
 <path d="m36.31 5c5.859 4.062 9.688 10.831 9.688 18.5 0 12.426-10.07 22.5-22.5 22.5-7.669 0-14.438-3.828-18.5-9.688 1.037 1.822 2.306 3.499 3.781 4.969 4.085 3.712 9.514 5.969 15.469 5.969 12.703 0 23-10.298 23-23 0-5.954-2.256-11.384-5.969-15.469-1.469-1.475-3.147-2.744-4.969-3.781zm4.969 3.781c3.854 4.113 6.219 9.637 6.219 15.719 0 12.703-10.297 23-23 23-6.081 0-11.606-2.364-15.719-6.219 4.16 4.144 9.883 6.719 16.219 6.719 12.703 0 23-10.298 23-23 0-6.335-2.575-12.06-6.719-16.219z" style="opacity:.05"/>
 <path d="m41.28 8.781c3.712 4.085 5.969 9.514 5.969 15.469 0 12.703-10.297 23-23 23-5.954 0-11.384-2.256-15.469-5.969 4.113 3.854 9.637 6.219 15.719 6.219 12.703 0 23-10.298 23-23 0-6.081-2.364-11.606-6.219-15.719z" style="opacity:.1"/>
 <path d="m31.25 2.375c8.615 3.154 14.75 11.417 14.75 21.13 0 12.426-10.07 22.5-22.5 22.5-9.708 0-17.971-6.135-21.12-14.75a23 23 0 0 0 44.875-7 23 23 0 0 0-16-21.875z" style="opacity:.2"/>
 <path d="m24 1c12.703 0 23 10.297 23 23s-10.297 23-23 23-23-10.297-23-23 10.297-23 23-23z" style="fill:url(#linearGradient3764)"/>
 <path d="m40.03 7.531c3.712 4.084 5.969 9.514 5.969 15.469 0 12.703-10.297 23-23 23-5.954 0-11.384-2.256-15.469-5.969 4.178 4.291 10.01 6.969 16.469 6.969 12.703 0 23-10.298 23-23 0-6.462-2.677-12.291-6.969-16.469z" style="opacity:.1"/>
 <g transform="matrix(.079315 0 0 .08281 9.3764 11.707)" style="fill:#75ad43">
  <path d="m146.3 3.533a22.694 21.737 0 0 0-22.7 21.746 22.694 21.737 0 0 0 22.7 21.721 22.694 21.737 0 0 0 22.68-21.721 22.694 21.737 0 0 0-22.68-21.746m50.801 0.212a17.02 16.302 0 0 0-17.011 16.295 17.02 16.302 0 0 0 17.02 16.3 17.02 16.302 0 0 0 17.01-16.3 17.02 16.302 0 0 0-17.01-16.295m44.645 2.807a15.13 14.491 0 0 0-15.145 14.478 15.13 14.491 0 0 0 15.14 14.509 15.13 14.491 0 0 0 15.12-14.509 15.13 14.491 0 0 0-15.12-14.478m-160.75 10.661a35.3 33.812 0 0 0-35.312 33.817 35.3 33.812 0 0 0 35.312 33.8 35.3 33.812 0 0 0 35.292-33.8 35.3 33.812 0 0 0-35.292-33.817m143.73 30.217c-2.543-0.053-5.101 0.014-7.634 0.165-11.46 0.685-90.85 28.436-101.36 38.09-15.22 13.983-12.305 39.32-1.65 56.35 11.432 18.268 40.14 19.265 64.862 18.04 21.18-1.047 54.43 23.971 38.32 53.23-17.12 31.08-30.19 51.35-27.432 68.35 2.758 16.998 21.337 30.739 57.2 35.28 54.54 6.911 101.7-49.744 60.16-120.52-11.421-19.46-22.02-29.934-31.05-40.28-27.596-31.655-15.246-71.265-15.556-78.189-1.07-23.916-18.06-30.148-35.86-30.516" style="fill:#000;opacity:.1"/>
  <ellipse cx="68.38" cy="38.961" rx="35.3" ry="33.812" style="fill:#6a9f3f"/>
  <ellipse cx="133.69" cy="13.2" rx="22.694" ry="21.737" style="fill:#6a9f3f"/>
  <ellipse cx="184.5" cy="7.98" rx="17.02" ry="16.302" style="fill:#6a9f3f"/>
  <ellipse cx="229.13" cy="8.973" rx="15.13" ry="14.491" style="fill:#6a9f3f"/>
  <path d="m204.5 35.517c20.26-1.212 42.25 3.02 43.47 30.347 0.309 6.921-12.04 46.543 15.564 78.19 9.03 10.351 19.65 20.823 31.07 40.28 41.539 70.779-5.62 127.44-60.16 120.52-35.866-4.545-54.46-18.276-57.22-35.27-2.758-16.998 10.317-37.26 27.434-68.34 16.11-29.26-17.13-54.28-38.31-53.23-24.719 1.222-53.42 0.206-64.853-18.06-10.655-17.03-13.589-42.36 1.631-56.34 10.509-9.655 89.91-37.408 101.37-38.09z" style="fill:#6a9f3f"/>
 </g>
</svg>

<svg xmlns="http://www.w3.org/2000/svg" viewBox="0 0 48 48">
 <defs>
  <linearGradient id="linearGradient3764" x1="1" x2="47" gradientUnits="userSpaceOnUse" gradientTransform="matrix(0,-1,1,0,-1.5e-6,47.999998)">
   <stop style="stop-color:#e4e4e4;stop-opacity:1"/>
   <stop offset="1" style="stop-color:#eee;stop-opacity:1"/>
  </linearGradient>
 </defs>
 <g>
  <path d="m 36.31 5 c 5.859 4.062 9.688 10.831 9.688 18.5 c 0 12.426 -10.07 22.5 -22.5 22.5 c -7.669 0 -14.438 -3.828 -18.5 -9.688 c 1.037 1.822 2.306 3.499 3.781 4.969 c 4.085 3.712 9.514 5.969 15.469 5.969 c 12.703 0 23 -10.298 23 -23 c 0 -5.954 -2.256 -11.384 -5.969 -15.469 c -1.469 -1.475 -3.147 -2.744 -4.969 -3.781 z m 4.969 3.781 c 3.854 4.113 6.219 9.637 6.219 15.719 c 0 12.703 -10.297 23 -23 23 c -6.081 0 -11.606 -2.364 -15.719 -6.219 c 4.16 4.144 9.883 6.719 16.219 6.719 c 12.703 0 23 -10.298 23 -23 c 0 -6.335 -2.575 -12.06 -6.719 -16.219 z" style="opacity:0.05"/>
  <path d="m 41.28 8.781 c 3.712 4.085 5.969 9.514 5.969 15.469 c 0 12.703 -10.297 23 -23 23 c -5.954 0 -11.384 -2.256 -15.469 -5.969 c 4.113 3.854 9.637 6.219 15.719 6.219 c 12.703 0 23 -10.298 23 -23 c 0 -6.081 -2.364 -11.606 -6.219 -15.719 z" style="opacity:0.1"/>
  <path d="m 31.25 2.375 c 8.615 3.154 14.75 11.417 14.75 21.13 c 0 12.426 -10.07 22.5 -22.5 22.5 c -9.708 0 -17.971 -6.135 -21.12 -14.75 a 23 23 0 0 0 44.875 -7 a 23 23 0 0 0 -16 -21.875 z" style="opacity:0.2"/>
 </g>
 <g>
  <path d="m 24 1 c 12.703 0 23 10.297 23 23 c 0 12.703 -10.297 23 -23 23 -12.703 0 -23 -10.297 -23 -23 0 -12.703 10.297 -23 23 -23 z" style="fill:url(#linearGradient3764);fill-opacity:1"/>
 </g>
 <g>
  <path d="m 40.03 7.531 c 3.712 4.084 5.969 9.514 5.969 15.469 0 12.703 -10.297 23 -23 23 c -5.954 0 -11.384 -2.256 -15.469 -5.969 4.178 4.291 10.01 6.969 16.469 6.969 c 12.703 0 23 -10.298 23 -23 0 -6.462 -2.677 -12.291 -6.969 -16.469 z" style="opacity:0.1"/>
 </g>
 <g transform="matrix(0.07931484,0,0,0.08280965,9.3764065,11.706947)" style="fill:#75ad43;fill-opacity:1">
  <path d="M 146.3 3.533 A 22.694 21.737 0 0 0 123.6 25.279 22.694 21.737 0 0 0 146.3 47 22.694 21.737 0 0 0 168.98 25.279 22.694 21.737 0 0 0 146.3 3.533 m 50.801 0.212 A 17.02 16.302 0 0 0 180.09 20.04 17.02 16.302 0 0 0 197.11 36.34 17.02 16.302 0 0 0 214.12 20.04 17.02 16.302 0 0 0 197.11 3.745 m 44.645 2.807 A 15.13 14.491 0 0 0 226.61 21.03 15.13 14.491 0 0 0 241.75 35.539 15.13 14.491 0 0 0 256.87 21.03 15.13 14.491 0 0 0 241.75 6.552 M 80.998 17.213 A 35.3 33.812 0 0 0 45.686 51.03 35.3 33.812 0 0 0 80.998 84.83 35.3 33.812 0 0 0 116.29 51.03 35.3 33.812 0 0 0 80.998 17.213 M 224.73 47.43 c -2.543 -0.053 -5.101 0.014 -7.634 0.165 -11.46 0.685 -90.85 28.436 -101.36 38.09 -15.22 13.983 -12.305 39.32 -1.65 56.35 11.432 18.268 40.14 19.265 64.862 18.04 21.18 -1.047 54.43 23.971 38.32 53.23 -17.12 31.08 -30.19 51.35 -27.432 68.35 2.758 16.998 21.337 30.739 57.2 35.28 54.54 6.911 101.7 -49.744 60.16 -120.52 -11.421 -19.46 -22.02 -29.934 -31.05 -40.28 C 248.55 124.48 260.9 84.87 260.59 77.946 259.52 54.03 242.53 47.798 224.73 47.43" style="fill:#000;opacity:0.1;stroke:none"/>
  <ellipse ry="33.812" rx="35.3" cy="38.961" cx="68.38" style="fill:#6a9f3f;opacity:1;stroke:none"/>
  <ellipse ry="21.737" rx="22.694" cy="13.2" cx="133.69" style="fill:#6a9f3f;opacity:1;stroke:none"/>
  <ellipse cy="7.98" cx="184.5" rx="17.02" ry="16.302" style="fill:#6a9f3f;opacity:1;stroke:none"/>
  <ellipse cy="8.973" cx="229.13" rx="15.13" ry="14.491" style="fill:#6a9f3f;opacity:1;stroke:none"/>
  <path d="m 204.5 35.517 c 20.26 -1.212 42.25 3.02 43.47 30.347 0.309 6.921 -12.04 46.543 15.564 78.19 9.03 10.351 19.65 20.823 31.07 40.28 41.539 70.779 -5.62 127.44 -60.16 120.52 -35.866 -4.545 -54.46 -18.276 -57.22 -35.27 -2.758 -16.998 10.317 -37.26 27.434 -68.34 16.11 -29.26 -17.13 -54.28 -38.31 -53.23 -24.719 1.222 -53.42 0.206 -64.853 -18.06 -10.655 -17.03 -13.589 -42.36 1.631 -56.34 10.509 -9.655 89.91 -37.408 101.37 -38.09 z" style="fill:#6a9f3f;opacity:1;stroke:none"/>
 </g>
</svg>
